X: 25
T: Cooley's
R:reel
M:C|
K:Edor
"Em"EBBA B2EB|~B2AB "(G)"dBAG|"D"(3FED AD BDAD|FAdB AGFD|
"Em"EBBA B2EB|~B2AB "D"defg|afge dBAF|1 DEFD "Em"E2ED:|2 DEFD "Em(A)"E2gf||
|:"Em"eB~B2 eBgB|eB~B2 "(G)"gedB|"D"A2FA DAFA|~A2FA defg|
"Em"eB~B2 eBgf|edBc "D"defg|afef dBAF|1 "D"DEFD "Em"E2gf:|2 "D"DEFD "Em"E2ED||


